icon/fa/cruzeiro-sign.svg

<svg xmlns="http://www.w3.org/2000/svg" viewBox="0 0 384 512"><!--! Font Awesome Free 6.1.2 by @fontawesome - https://fontawesome.com License - https://fontawesome.com/license/free (Icons: CC BY 4.0, Fonts: SIL OFL 1.1, Code: MIT License) Copyright 2022 Fonticons, Inc.--><path d="M159.1 402.7V256c0-17.7 15.2-32 32-32 8.6 0 15.7 2.7 21.2 7.3 10.7-4.7 22.5-7.3 35-7.3 17.2 0 34 5.1 48.4 14.7l10.1 6.7c14.7 9.8 18.6 29.6 8.8 44.4-9.8 14.7-30.5 18.6-44.4 8.8l-10-6.7c-3.9-2.5-8.3-3.9-12.9-3.9-12.9 0-23.3 10.4-23.3 23.3V416c40.1 0 78.3-15.4 106.7-40.7 13.1-11.8 33.4-10.7 45.1 2.5 11.8 13.1 10.7 33.4-2.5 44.3C333.7 458.4 281.4 480 224 480 100.3 480 0 379.7 0 256S100.3 32 224 32c57.4 0 109.7 21.59 149.3 57.04 13.2 11.76 14.3 32.06 2.5 45.16-11.7 13.2-32 14.3-45.1 2.5C302.3 111.4 264.1 96 224 96c-88.4 0-160.9 71.6-160.9 160 0 65.6 40.4 121.1 96 146.7z"/></svg>

<svg xmlns="http://www.w3.org/2000/svg" viewBox="0 0 384 512" height="1em" width="1em">
<!--! Font Awesome Free 6.1.2 by @fontawesome - https://fontawesome.com License - https://fontawesome.com/license/free (Icons: CC BY 4.0, Fonts: SIL OFL 1.1, Code: MIT License) Copyright 2022 Fonticons, Inc.-->
  <path d="M159.1 402.7V256C159.1 238.3 174.3 224 191.1 224C199.7 224 206.8 226.7 212.3 231.3C223 226.6 234.8 224 247.3 224C264.5 224 281.3 229.1 295.7 238.7L305.8 245.4C320.5 255.2 324.4 275 314.6 289.8C304.8 304.5 284.1 308.4 270.2 298.6L260.2 291.9C256.3 289.4 251.9 288 247.3 288C234.4 288 224 298.4 224 311.3V416C264.1 416 302.3 400.6 330.7 375.3C343.8 363.5 364.1 364.6 375.8 377.8C387.6 390.9 386.5 411.2 373.3 422.1C333.7 458.4 281.4 480 224 480C100.3 480 0 379.7 0 256C0 132.3 100.3 32 224 32C281.4 32 333.7 53.59 373.3 89.04C386.5 100.8 387.6 121.1 375.8 134.2C364.1 147.4 343.8 148.5 330.7 136.7C302.3 111.4 264.1 96 224 96C135.6 96 63.1 167.6 63.1 256C63.1 321.6 103.5 377.1 159.1 402.7V402.7z"/>
</svg>
